epam-assets/icon-sources/18/internal-logo/experts.svg

<svg width="18" height="18" viewBox="0 0 18 18" fill="none" xmlns="http://www.w3.org/2000/svg">
<g id="18/internal-logo/experts">
<path id="icon" fill-rule="evenodd" clip-rule="evenodd" d="M12.75 15.4874L16.5 9.00004L12.75 2.5127L5.25 2.5127L1.5 9.00004L5.25 15.4874H12.75ZM12.3026 5.77985C11.9613 5.18583 11.6583 4.67195 11.6295 4.63785C11.5803 4.57991 11.1463 4.57588 8.8968 4.57588C8.73602 4.57588 8.58582 4.57583 8.44551 4.57578C6.68196 4.57522 6.47779 4.57516 6.40542 4.67675C6.39595 4.69005 6.38873 4.7051 6.38057 4.72211C6.37561 4.73245 6.3703 4.74353 6.36392 4.75537C6.34449 4.79149 6.00697 5.37393 5.61391 6.04968C5.22085 6.7254 4.86209 7.3435 4.81663 7.42321C4.77119 7.50292 4.5523 7.88341 4.33025 8.26875L3.92647 8.96939L3.99215 9.0655C4.05644 9.15959 4.46777 9.87368 4.86345 10.578C5.27373 11.3084 5.70178 12.0671 5.73251 12.1184C5.80622 12.2415 6.09201 12.7448 6.13261 12.8231C6.15684 12.8698 6.24798 13.0252 6.33513 13.1684L6.49358 13.4286H11.5225L11.5985 13.349C11.6403 13.3051 11.8564 12.9506 12.0786 12.5611C12.3009 12.1715 12.6105 11.632 12.7668 11.362C12.923 11.0921 13.0508 10.857 13.0508 10.8397C13.0508 10.822 12.5827 10.8082 11.9814 10.8082H10.6386L10.4132 11.1446C10.2466 11.3932 10.1682 11.4815 10.1129 11.4827C9.69173 11.4918 7.52435 11.4739 7.49219 11.4611C7.46895 11.4518 7.3167 11.1856 7.15386 10.8695C6.99102 10.5534 6.82685 10.247 6.78907 10.1885C6.7513 10.1301 6.72026 10.0544 6.72016 10.0203C6.71996 9.96366 6.77077 9.95835 7.31264 9.95835H7.90537L8.1379 9.83031C8.26579 9.75987 8.43169 9.66699 8.50656 9.6239C8.58143 9.58084 8.86147 9.42113 9.12889 9.26904C9.39631 9.11695 9.6102 8.97708 9.60414 8.9582C9.59812 8.93936 9.2185 8.72357 8.76061 8.47867L7.92803 8.03344L7.32398 8.0423C6.72448 8.05111 6.71992 8.05062 6.71992 7.97445C6.71992 7.93227 6.74831 7.85543 6.78298 7.80373C6.81769 7.75203 6.98857 7.43489 7.16277 7.09891L7.47947 6.48807H10.2626L10.3137 6.62086C10.3418 6.69392 10.3982 6.82933 10.4391 6.92186L10.5135 7.09006H11.9188C13.1123 7.09006 13.1227 7.08854 12.987 6.93298C12.952 6.89278 12.644 6.37387 12.3026 5.77985Z" fill="#6C6F80"/>
</g>
</svg>

<svg xmlns="http://www.w3.org/2000/svg" width="18" height="18" fill="none" viewBox="0 0 18 18">
  <path fill="#6C6F80" fill-rule="evenodd" d="M12.75 15.487 16.5 9l-3.75-6.487h-7.5L1.5 9l3.75 6.487h7.5Zm-.447-9.707a33.708 33.708 0 0 0-.674-1.142c-.049-.058-.483-.062-2.732-.062h-.451c-1.764 0-1.968 0-2.04.1a.304.304 0 0 0-.025.046c-.005.01-.01.022-.017.033-.02.036-.357.619-.75 1.295A529.923 529.923 0 0 0 4.33 8.269l-.404.7.066.097c.064.094.476.808.871 1.512a297.738 297.738 0 0 0 1.27 2.245c.024.047.115.202.202.345l.159.26h5.029l.075-.079c.042-.044.258-.398.48-.788l.689-1.199c.156-.27.284-.505.284-.522 0-.018-.468-.032-1.07-.032H10.64l-.226.337c-.166.248-.245.337-.3.338a93.1 93.1 0 0 1-2.62-.022c-.024-.01-.176-.275-.34-.591a16.113 16.113 0 0 0-.364-.681.425.425 0 0 1-.069-.169c0-.056.05-.062.593-.062h.592l.233-.128c.128-.07.294-.163.369-.206l.622-.355c.267-.152.481-.292.475-.31-.006-.02-.385-.235-.843-.48l-.833-.446-.604.01c-.6.008-.604.008-.604-.069a.38.38 0 0 1 .063-.17c.035-.052.206-.37.38-.705l.316-.61h2.784l.05.132c.029.073.085.208.126.3l.075.17h1.405c1.193 0 1.204-.002 1.068-.158-.035-.04-.343-.56-.684-1.153Z" clip-rule="evenodd"/>
</svg>
